favicon.svg

<svg xmlns="http://www.w3.org/2000/svg" width="100" height="100" fill="none"><path fill="#FFEF5A" d="M0 0h100v100H0z"/><path fill="#000" d="M19.298 29.216h10.88l10.048 29.568-1.472-.64 8.768-21.824 4.288 12.736-13.568 29.12zm23.616 0h9.216l11.584 28.608-1.664-.256 8.64-28.352h9.984L62.498 78.048z"/></svg>

<svg width="100" height="100" viewBox="0 0 100 100" fill="none" xmlns="http://www.w3.org/2000/svg">
<rect width="100" height="100" fill="#FFEF5A"/>
<path d="M19.298 29.216H30.178L40.226 58.784L38.754 58.144L47.522 36.32L51.81 49.056L38.242 78.176L19.298 29.216ZM42.914 29.216H52.13L63.714 57.824L62.05 57.568L70.69 29.216H80.674L62.498 78.048L42.914 29.216Z" fill="black"/>
</svg>
